X: 25
T:Jota de Arbo
M:3/4
L:1/8
Q:250
C:Trad
S:Rep. Euxemes de Arbo
R:Jota
K:D
DEFA | d2A2F2| D2 {A} DFDF | d2A2F2 | E2 CECE | C2 A2G2| 
E2 CECE | C2 AG FE |1 D2 {A} :|2 D6- |:D2{A} D2E2 | F4{d} F2 | E2D2
E2| F2ED C2- | C2 E2F2 | G4 {d} G2 | F2E2F2 G2FE "     3 veces"D2- 
:| D6-| D2{A}

